assets/img/base/header/header-logo-mc-desktop.svg

<?xml version="1.0" encoding="UTF-8" standalone="no"?>
<svg
   xmlns:dc="http://purl.org/dc/elements/1.1/"
   xmlns:cc="http://creativecommons.org/ns#"
   xmlns:rdf="http://www.w3.org/1999/02/22-rdf-syntax-ns#"
   xmlns:svg="http://www.w3.org/2000/svg"
   xmlns="http://www.w3.org/2000/svg"
   xmlns:sodipodi="http://sodipodi.sourceforge.net/DTD/sodipodi-0.dtd"
   xmlns:inkscape="http://www.inkscape.org/namespaces/inkscape"
   inkscape:version="1.0 (4035a4fb49, 2020-05-01)"
   sodipodi:docname="header-logo-mc-desktop.svg"
   id="svg26"
   version="1.1"
   fill="none"
   viewBox="0 0 120 48"
   height="48"
   width="120">
  <metadata
     id="metadata32">
    <rdf:RDF>
      <cc:Work
         rdf:about="">
        <dc:format>image/svg+xml</dc:format>
        <dc:type
           rdf:resource="http://purl.org/dc/dcmitype/StillImage" />
        <dc:title></dc:title>
      </cc:Work>
    </rdf:RDF>
  </metadata>
  <defs
     id="defs30" />
  <sodipodi:namedview
     inkscape:current-layer="svg26"
     inkscape:window-maximized="1"
     inkscape:window-y="-9"
     inkscape:window-x="-9"
     inkscape:cy="24.5"
     inkscape:cx="60"
     inkscape:zoom="10.975"
     showgrid="false"
     id="namedview28"
     inkscape:window-height="1361"
     inkscape:window-width="3440"
     inkscape:pageshadow="2"
     inkscape:pageopacity="0"
     guidetolerance="10"
     gridtolerance="10"
     objecttolerance="10"
     borderopacity="1"
     bordercolor="#666666"
     pagecolor="#ffffff" />
  <g
     transform="translate(0,-1)"
     id="g883">
    <path
       d="M 0.894497,24.9908 V 9.78474 H 4.90431 V 11.7468 H 5.02769 C 5.66515,11.1132 6.34373,10.5716 7.06344,10.122 7.78315,9.65189 8.6468,9.41685 9.6544,9.41685 c 1.0898,0 1.9638,0.22482 2.6218,0.67445 0.6786,0.4292 1.2132,1.0526 1.6039,1.8701 0.6786,-0.6949 1.3983,-1.2876 2.1592,-1.7781 0.7608,-0.51097 1.645,-0.76645 2.6526,-0.76645 1.6451,0 2.848,0.55184 3.6088,1.65545 0.7814,1.0833 1.1721,2.5753 1.1721,4.476 v 9.4425 h -4.5341 v -8.86 c 0,-1.1037 -0.1543,-1.8599 -0.4627,-2.2686 -0.2879,-0.4088 -0.7609,-0.6132 -1.4189,-0.6132 -0.7608,0 -1.6347,0.4905 -2.6218,1.4716 V 24.9908 H 9.90116 v -8.86 c 0,-1.1037 -0.15423,-1.8599 -0.46268,-2.2686 C 9.1506,13.4534 8.67765,13.249 8.01963,13.249 c -0.76084,0 -1.62449,0.4905 -2.59096,1.4716 v 10.2702 z"
       fill="#000000"
       id="path2" />
    <path
       d="m 32.1841,25.3586 c -1.8919,0 -3.4135,-0.7051 -4.5651,-2.1153 -1.1309,-1.4307 -1.6964,-3.3825 -1.6964,-5.8556 0,-1.6554 0.3084,-3.0759 0.9253,-4.2613 0.6169,-1.2059 1.4086,-2.1256 2.3751,-2.7592 0.987,-0.63355 2.0357,-0.95035 3.1461,-0.95035 1.4806,0 2.8069,0.62335 3.979,1.87005 h 0.1234 l 0.0503,-1.50216 h 3.8669 V 24.9908 h -4.0098 v -1.5023 h -0.1233 c -0.5347,0.5314 -1.1619,0.9811 -1.8816,1.349 -0.7197,0.3474 -1.4497,0.5211 -2.1899,0.5211 z m 1.1721,-3.6788 c 0.4935,0 0.9356,-0.1022 1.3263,-0.3066 0.4112,-0.2044 0.8019,-0.5621 1.1721,-1.073 v -6.2234 c -0.3907,-0.3679 -0.8123,-0.6234 -1.2647,-0.7665 -0.4318,-0.143 -0.8533,-0.2146 -1.2646,-0.2146 -0.7197,0 -1.3572,0.3475 -1.9124,1.0424 -0.5552,0.6744 -0.8328,1.7372 -0.8328,3.1883 0,1.492 0.2365,2.5957 0.7095,3.311 0.4935,0.6949 1.1823,1.0424 2.0666,1.0424 z"
       fill="#000000"
       id="path4" />
    <path
       d="m 49.6805,25.3586 c -1.8918,0 -3.249,-0.5416 -4.0715,-1.6248 -0.802,-1.0832 -1.203,-2.5037 -1.203,-4.2614 V 13.3103 H 42.3086 V 9.96869 l 2.3442,-0.18395 0.0511,-4.04676 h 4.2363 v 4.04676 h 3.6705 v 3.52556 h -3.6705 v 6.1008 c 0,0.8584 0.1748,1.4818 0.5244,1.8701 0.3701,0.3679 0.8533,0.5519 1.4497,0.5519 0.2467,0 0.4935,-0.0307 0.7402,-0.092 0.2674,-0.0613 0.5038,-0.1329 0.7095,-0.2146 l 0.7094,3.2803 c -0.3907,0.1226 -0.8739,0.2453 -1.4497,0.3679 -0.5552,0.1226 -1.203,0.1839 -1.9432,0.1839 z"
       fill="#000000"
       id="path6" />
    <path
       d="m 61.1003,25.3586 c -1.4189,0 -2.7041,-0.3065 -3.8556,-0.9197 -1.131,-0.6336 -2.0358,-1.5431 -2.7144,-2.7285 -0.658,-1.2058 -0.987,-2.6467 -0.987,-4.3227 0,-1.6963 0.3701,-3.1372 1.1104,-4.3226 0.7403,-1.1854 1.717,-2.0847 2.9303,-2.6979 1.2132,-0.63355 2.5189,-0.95035 3.9172,-0.95035 0.9459,0 1.7787,0.15329 2.4985,0.45986 0.7402,0.30659 1.3982,0.69489 1.974,1.16499 l -2.1283,2.9124 c -0.7197,-0.5927 -1.4085,-0.889 -2.0666,-0.889 -1.0898,0 -1.9637,0.3883 -2.6218,1.1649 -0.6374,0.7767 -0.9561,1.8293 -0.9561,3.1577 0,1.3081 0.3187,2.3607 0.9561,3.1577 0.6581,0.7767 1.4806,1.165 2.4676,1.165 0.4935,0 0.9768,-0.1022 1.4497,-0.3065 0.473,-0.2249 0.9048,-0.4906 1.2955,-0.7971 l 1.789,2.9431 c -0.7608,0.654 -1.5834,1.1241 -2.4676,1.4102 -0.8842,0.2657 -1.7479,0.3985 -2.5909,0.3985 z"
       fill="#000000"
       id="path8" />
    <path
       d="M 68.2191,24.9908 V 3.5 h 4.5342 v 5.27305 2.29925 c 0.5758,-0.5109 1.0281,-0.5518 1.789,-0.981 0.7814,-0.44963 1.6862,-0.67445 2.7143,-0.67445 1.6656,0 2.8686,0.55184 3.6088,1.65545 0.7609,1.0833 1.1413,2.5753 1.1413,4.476 v 9.4425 h -4.5342 v -8.86 c 0,-1.1037 -0.1542,-1.8599 -0.4626,-2.2686 C 76.722,13.4534 76.249,13.249 75.591,13.249 c -0.5758,0 -1.0693,0.1329 -1.4805,0.3986 -0.4113,0.2452 -0.8637,0.6029 -1.3572,1.073 v 10.2702 z"
       fill="#000000"
       id="path10" />
    <path
       d="m 88.1023,25.3791 c -0.8248,0 -1.5194,-0.2805 -2.0837,-0.8414 -0.5427,-0.5825 -0.814,-1.2944 -0.814,-2.1358 0,-0.8629 0.2713,-1.5749 0.814,-2.1358 0.5643,-0.5825 1.2589,-0.8737 2.0837,-0.8737 0.8248,0 1.5086,0.2912 2.0512,0.8737 C 90.7178,20.827 91,21.539 91,22.4019 c 0,0.8414 -0.2822,1.5533 -0.8465,2.1358 -0.5426,0.5609 -1.2264,0.8414 -2.0512,0.8414 z"
       fill="#000000"
       id="path12" />
    <path
       d="M 7.55696,47.5 C 6.1381,47.5 4.8529,47.1934 3.70137,46.5803 2.57039,45.9467 1.66561,45.0372 0.987031,43.8518 0.32901,42.6459 0,41.205 0,39.5291 0,37.8327 0.370137,36.3918 1.11041,35.2064 1.85068,34.021 2.82743,33.1217 4.04066,32.5086 5.25388,31.875 6.55964,31.5582 7.95794,31.5582 c 0.9459,0 1.77871,0.1533 2.49846,0.4599 0.7402,0.3066 1.3983,0.6949 1.974,1.165 l -2.1283,2.9124 C 9.58242,35.5028 8.89356,35.2064 8.23554,35.2064 c -1.08985,0 -1.96378,0.3884 -2.6218,1.165 -0.63746,0.7767 -0.95619,1.8292 -0.95619,3.1577 0,1.3081 0.31873,2.3606 0.95619,3.1577 0.65802,0.7767 1.48055,1.165 2.46758,1.165 0.49351,0 0.97675,-0.1022 1.4497,-0.3066 0.47298,-0.2248 0.90478,-0.4905 1.29548,-0.7971 l 1.789,2.9431 c -0.7608,0.654 -1.5834,1.1241 -2.4676,1.4103 C 9.2637,47.3672 8.40005,47.5 7.55696,47.5 Z"
       fill="#000000"
       id="path14" />
    <path
       d="m 20.6498,47.5 c -1.46,0 -2.776,-0.3168 -3.9481,-0.9504 -1.1721,-0.6336 -2.0975,-1.5431 -2.776,-2.7285 -0.6786,-1.1854 -1.0179,-2.6161 -1.0179,-4.292 0,-1.6555 0.3393,-3.0759 1.0179,-4.2614 0.6991,-1.1854 1.6039,-2.0949 2.7143,-2.7284 1.1104,-0.6541 2.2722,-0.9811 3.4855,-0.9811 1.4599,0 2.6629,0.327 3.6088,0.9811 0.9665,0.6335 1.6862,1.5022 2.1591,2.6058 0.4935,1.0832 0.7403,2.3198 0.7403,3.7096 0,0.3883 -0.0206,0.7766 -0.0617,1.1649 -0.0411,0.3679 -0.0822,0.6438 -0.1234,0.8278 h -9.1609 c 0.2057,1.1036 0.6683,1.9212 1.3881,2.4526 0.7197,0.5109 1.5833,0.7664 2.5909,0.7664 1.0899,0 2.19,-0.3372 3.3004,-1.0117 l 1.5114,2.7285 c -0.7814,0.5314 -1.6553,0.9504 -2.6218,1.2569 C 22.4902,47.3467 21.5546,47.5 20.6498,47.5 Z m -3.3929,-9.6264 h 5.5212 c 0,-0.8379 -0.2056,-1.5226 -0.6169,-2.054 -0.3907,-0.5519 -1.0384,-0.8278 -1.9432,-0.8278 -0.6992,0 -1.3263,0.2453 -1.8815,0.7358 -0.5552,0.4701 -0.9151,1.1854 -1.0796,2.146 z"
       fill="#000000"
       id="path16" />
    <path
       d="m 29.1499,47.1321 v -15.206 h 4.0099 v 1.9314 h 0.1233 c 0.6581,-0.6131 1.3778,-1.1445 2.1592,-1.5942 0.8019,-0.47 1.717,-0.7051 2.7452,-0.7051 1.6656,0 2.8685,0.5519 3.6088,1.6555 0.7608,1.0832 1.1412,2.5752 1.1412,4.476 v 9.4424 h -4.5341 v -8.8599 c 0,-1.1037 -0.1543,-1.8599 -0.4627,-2.2687 -0.2879,-0.4087 -0.7608,-0.6131 -1.4189,-0.6131 -0.5757,0 -1.0693,0.1328 -1.4805,0.3985 -0.4113,0.2453 -0.8637,0.603 -1.3572,1.073 v 10.2702 z"
       fill="#000000"
       id="path18" />
    <path
       d="m 52.0758,47.5 c -1.8918,0 -3.249,-0.5416 -4.0715,-1.6248 -0.802,-1.0833 -1.203,-2.5037 -1.203,-4.2614 v -6.1621 h -2.0974 v -3.3416 l 2.3442,-0.184 v -4.0468 h 4.2874 v 4.0468 h 3.6705 v 3.5256 h -3.6705 v 6.1008 c 0,0.8584 0.1748,1.4818 0.5244,1.8701 0.3701,0.3679 0.8533,0.5518 1.4497,0.5518 0.2467,0 0.4935,-0.0306 0.7402,-0.092 0.2673,-0.0613 0.5038,-0.1328 0.7095,-0.2146 l 0.7094,3.2804 C 55.078,47.0708 54.5947,47.1934 54.019,47.3161 53.4638,47.4387 52.816,47.5 52.0758,47.5 Z"
       fill="#000000"
       id="path20" />
    <path
       d="m 64.2228,47.5 c -1.46,0 -2.776,-0.3168 -3.9481,-0.9504 -1.1721,-0.6336 -2.0975,-1.5431 -2.7761,-2.7285 -0.6785,-1.1854 -1.0178,-2.6161 -1.0178,-4.292 0,-1.6555 0.3393,-3.0759 1.0178,-4.2614 0.6992,-1.1854 1.604,-2.0949 2.7144,-2.7284 1.1104,-0.6541 2.2722,-0.9811 3.4854,-0.9811 1.46,0 2.663,0.327 3.6089,0.9811 0.9664,0.6335 1.6861,1.5022 2.1591,2.6058 0.4935,1.0832 0.7403,2.3198 0.7403,3.7096 0,0.3883 -0.0206,0.7766 -0.0617,1.1649 -0.0411,0.3679 -0.0823,0.6438 -0.1234,0.8278 h -9.1609 c 0.2057,1.1036 0.6683,1.9212 1.388,2.4526 0.7197,0.5109 1.5834,0.7664 2.591,0.7664 1.0898,0 2.19,-0.3372 3.3004,-1.0117 l 1.5114,2.7285 c -0.7814,0.5314 -1.6554,0.9504 -2.6218,1.2569 C 66.0632,47.3467 65.1276,47.5 64.2228,47.5 Z m -3.3929,-9.6264 h 5.5212 c 0,-0.8379 -0.2057,-1.5226 -0.6169,-2.054 -0.3907,-0.5519 -1.0384,-0.8278 -1.9432,-0.8278 -0.6992,0 -1.3264,0.2453 -1.8816,0.7358 -0.5552,0.4701 -0.915,1.1854 -1.0795,2.146 z"
       fill="#000000"
       id="path22" />
    <path
       d="m 72.7229,47.1321 v -15.206 h 4.0098 v 2.6672 h 0.1234 c 0.5552,-1.0219 1.2235,-1.7781 2.0049,-2.2686 0.7814,-0.511 1.5628,-0.7665 2.3442,-0.7665 0.4318,0 0.7917,0.0307 1.0796,0.092 0.2879,0.0409 0.5346,0.1124 0.7403,0.2146 l -0.7403,3.8935 c -0.2673,-0.0818 -0.5347,-0.1431 -0.802,-0.184 -0.2467,-0.0409 -0.5346,-0.0613 -0.8636,-0.0613 -0.5758,0 -1.1824,0.2146 -1.8199,0.6438 -0.6169,0.4088 -1.1309,1.1241 -1.5422,2.146 v 8.8293 z"
       fill="#000000"
       id="path24" />
  </g>
</svg>

<svg width="120" height="49" viewBox="0 0 120 49" fill="none" xmlns="http://www.w3.org/2000/svg">
<path d="M0.894497 24.9908V9.78474H4.90431V11.7468H5.02769C5.66515 11.1132 6.34373 10.5716 7.06344 10.122C7.78315 9.65189 8.6468 9.41685 9.6544 9.41685C10.7442 9.41685 11.6182 9.64167 12.2762 10.0913C12.9548 10.5205 13.4894 11.1439 13.8801 11.9614C14.5587 11.2665 15.2784 10.6738 16.0393 10.1833C16.8001 9.67233 17.6843 9.41685 18.6919 9.41685C20.337 9.41685 21.5399 9.96869 22.3007 11.0723C23.0821 12.1556 23.4728 13.6476 23.4728 15.5483V24.9908H18.9387V16.1308C18.9387 15.0271 18.7844 14.2709 18.476 13.8622C18.1881 13.4534 17.7151 13.249 17.0571 13.249C16.2963 13.249 15.4224 13.7395 14.4353 14.7206V24.9908H9.90116V16.1308C9.90116 15.0271 9.74693 14.2709 9.43848 13.8622C9.1506 13.4534 8.67765 13.249 8.01963 13.249C7.25879 13.249 6.39514 13.7395 5.42867 14.7206V24.9908H0.894497Z" fill="black"/>
<path d="M32.1841 25.3586C30.2922 25.3586 28.7706 24.6535 27.619 23.2433C26.4881 21.8126 25.9226 19.8608 25.9226 17.3877C25.9226 15.7323 26.231 14.3118 26.8479 13.1264C27.4648 11.9205 28.2565 11.0008 29.223 10.3672C30.21 9.73365 31.2587 9.41685 32.3691 9.41685C33.8497 9.41685 35.176 10.0402 36.3481 11.2869H36.4715L36.5218 9.78474H40.3887V24.9908H36.3789V23.4885H36.2556C35.7209 24.0199 35.0937 24.4696 34.374 24.8375C33.6543 25.1849 32.9243 25.3586 32.1841 25.3586ZM33.3562 21.6798C33.8497 21.6798 34.2918 21.5776 34.6825 21.3732C35.0937 21.1688 35.4844 20.8111 35.8546 20.3002V14.0768C35.4639 13.7089 35.0423 13.4534 34.5899 13.3103C34.1581 13.1673 33.7366 13.0957 33.3253 13.0957C32.6056 13.0957 31.9681 13.4432 31.4129 14.1381C30.8577 14.8125 30.5801 15.8753 30.5801 17.3264C30.5801 18.8184 30.8166 19.9221 31.2896 20.6374C31.7831 21.3323 32.4719 21.6798 33.3562 21.6798Z" fill="black"/>
<path d="M49.6805 25.3586C47.7887 25.3586 46.4315 24.817 45.609 23.7338C44.807 22.6506 44.406 21.2301 44.406 19.4724V13.3103H42.3086V9.96869L44.6528 9.78474L44.7039 5.73798H48.9402V9.78474H52.6107V13.3103H48.9402V19.4111C48.9402 20.2695 49.115 20.8929 49.4646 21.2812C49.8347 21.6491 50.3179 21.8331 50.9143 21.8331C51.161 21.8331 51.4078 21.8024 51.6545 21.7411C51.9219 21.6798 52.1583 21.6082 52.364 21.5265L53.0734 24.8068C52.6827 24.9294 52.1995 25.0521 51.6237 25.1747C51.0685 25.2973 50.4207 25.3586 49.6805 25.3586Z" fill="black"/>
<path d="M61.1003 25.3586C59.6814 25.3586 58.3962 25.0521 57.2447 24.4389C56.1137 23.8053 55.2089 22.8958 54.5303 21.7104C53.8723 20.5046 53.5433 19.0637 53.5433 17.3877C53.5433 15.6914 53.9134 14.2505 54.6537 13.0651C55.394 11.8797 56.3707 10.9804 57.584 10.3672C58.7972 9.73365 60.1029 9.41685 61.5012 9.41685C62.4471 9.41685 63.2799 9.57014 63.9997 9.87671C64.7399 10.1833 65.3979 10.5716 65.9737 11.0417L63.8454 13.9541C63.1257 13.3614 62.4369 13.0651 61.7788 13.0651C60.689 13.0651 59.8151 13.4534 59.157 14.23C58.5196 15.0067 58.2009 16.0593 58.2009 17.3877C58.2009 18.6958 58.5196 19.7484 59.157 20.5454C59.8151 21.3221 60.6376 21.7104 61.6246 21.7104C62.1181 21.7104 62.6014 21.6082 63.0743 21.4039C63.5473 21.179 63.9791 20.9133 64.3698 20.6068L66.1588 23.5499C65.398 24.2039 64.5754 24.674 63.6912 24.9601C62.807 25.2258 61.9433 25.3586 61.1003 25.3586Z" fill="black"/>
<path d="M68.2191 24.9908V3.5H72.7533V8.77305V11.0723C73.3291 10.5614 73.7814 10.5205 74.5423 10.0913C75.3237 9.64167 76.2285 9.41685 77.2566 9.41685C78.9222 9.41685 80.1252 9.96869 80.8654 11.0723C81.6263 12.1556 82.0067 13.6476 82.0067 15.5483V24.9908H77.4725V16.1308C77.4725 15.0271 77.3183 14.2709 77.0099 13.8622C76.722 13.4534 76.249 13.249 75.591 13.249C75.0152 13.249 74.5217 13.3819 74.1105 13.6476C73.6992 13.8928 73.2468 14.2505 72.7533 14.7206V24.9908H68.2191Z" fill="black"/>
<path d="M88.1023 25.3791C87.2775 25.3791 86.5829 25.0986 86.0186 24.5377C85.4759 23.9552 85.2046 23.2433 85.2046 22.4019C85.2046 21.539 85.4759 20.827 86.0186 20.2661C86.5829 19.6836 87.2775 19.3924 88.1023 19.3924C88.9271 19.3924 89.6109 19.6836 90.1535 20.2661C90.7178 20.827 91 21.539 91 22.4019C91 23.2433 90.7178 23.9552 90.1535 24.5377C89.6109 25.0986 88.9271 25.3791 88.1023 25.3791Z" fill="black"/>
<path d="M7.55696 47.5C6.1381 47.5 4.8529 47.1934 3.70137 46.5803C2.57039 45.9467 1.66561 45.0372 0.987031 43.8518C0.32901 42.6459 0 41.205 0 39.5291C0 37.8327 0.370137 36.3918 1.11041 35.2064C1.85068 34.021 2.82743 33.1217 4.04066 32.5086C5.25388 31.875 6.55964 31.5582 7.95794 31.5582C8.90384 31.5582 9.73665 31.7115 10.4564 32.0181C11.1966 32.3247 11.8547 32.713 12.4304 33.1831L10.3021 36.0955C9.58242 35.5028 8.89356 35.2064 8.23554 35.2064C7.14569 35.2064 6.27176 35.5948 5.61374 36.3714C4.97628 37.1481 4.65755 38.2006 4.65755 39.5291C4.65755 40.8372 4.97628 41.8897 5.61374 42.6868C6.27176 43.4635 7.09429 43.8518 8.08132 43.8518C8.57483 43.8518 9.05807 43.7496 9.53102 43.5452C10.004 43.3204 10.4358 43.0547 10.8265 42.7481L12.6155 45.6912C11.8547 46.3452 11.0321 46.8153 10.1479 47.1015C9.2637 47.3672 8.40005 47.5 7.55696 47.5Z" fill="black"/>
<path d="M20.6498 47.5C19.1898 47.5 17.8738 47.1832 16.7017 46.5496C15.5296 45.916 14.6042 45.0065 13.9257 43.8211C13.2471 42.6357 12.9078 41.205 12.9078 39.5291C12.9078 37.8736 13.2471 36.4532 13.9257 35.2677C14.6248 34.0823 15.5296 33.1728 16.64 32.5393C17.7504 31.8852 18.9122 31.5582 20.1255 31.5582C21.5854 31.5582 22.7884 31.8852 23.7343 32.5393C24.7008 33.1728 25.4205 34.0415 25.8934 35.1451C26.3869 36.2283 26.6337 37.4649 26.6337 38.8547C26.6337 39.243 26.6131 39.6313 26.572 40.0196C26.5309 40.3875 26.4898 40.6634 26.4486 40.8474H17.2877C17.4934 41.951 17.956 42.7686 18.6758 43.3C19.3955 43.8109 20.2591 44.0664 21.2667 44.0664C22.3566 44.0664 23.4567 43.7292 24.5671 43.0547L26.0785 45.7832C25.2971 46.3146 24.4232 46.7336 23.4567 47.0401C22.4902 47.3467 21.5546 47.5 20.6498 47.5ZM17.2569 37.8736H22.7781C22.7781 37.0357 22.5725 36.351 22.1612 35.8196C21.7705 35.2677 21.1228 34.9918 20.218 34.9918C19.5188 34.9918 18.8917 35.2371 18.3365 35.7276C17.7813 36.1977 17.4214 36.913 17.2569 37.8736Z" fill="black"/>
<path d="M29.1499 47.1321V31.9261H33.1598V33.8575H33.2831C33.9412 33.2444 34.6609 32.713 35.4423 32.2633C36.2442 31.7933 37.1593 31.5582 38.1875 31.5582C39.8531 31.5582 41.056 32.1101 41.7963 33.2137C42.5571 34.2969 42.9375 35.7889 42.9375 37.6897V47.1321H38.4034V38.2722C38.4034 37.1685 38.2491 36.4123 37.9407 36.0035C37.6528 35.5948 37.1799 35.3904 36.5218 35.3904C35.9461 35.3904 35.4525 35.5232 35.0413 35.7889C34.63 36.0342 34.1776 36.3919 33.6841 36.8619V47.1321H29.1499Z" fill="black"/>
<path d="M52.0758 47.5C50.184 47.5 48.8268 46.9584 48.0043 45.8752C47.2023 44.7919 46.8013 43.3715 46.8013 41.6138V35.4517H44.7039V32.1101L47.0481 31.9261V27.8793H51.3355V31.9261H55.006V35.4517H51.3355V41.5525C51.3355 42.4109 51.5103 43.0343 51.8599 43.4226C52.23 43.7905 52.7132 43.9744 53.3096 43.9744C53.5563 43.9744 53.8031 43.9438 54.0498 43.8824C54.3171 43.8211 54.5536 43.7496 54.7593 43.6678L55.4687 46.9482C55.078 47.0708 54.5947 47.1934 54.019 47.3161C53.4638 47.4387 52.816 47.5 52.0758 47.5Z" fill="black"/>
<path d="M64.2228 47.5C62.7628 47.5 61.4468 47.1832 60.2747 46.5496C59.1026 45.916 58.1772 45.0065 57.4986 43.8211C56.8201 42.6357 56.4808 41.205 56.4808 39.5291C56.4808 37.8736 56.8201 36.4532 57.4986 35.2677C58.1978 34.0823 59.1026 33.1728 60.213 32.5393C61.3234 31.8852 62.4852 31.5582 63.6984 31.5582C65.1584 31.5582 66.3614 31.8852 67.3073 32.5393C68.2737 33.1728 68.9934 34.0415 69.4664 35.1451C69.9599 36.2283 70.2067 37.4649 70.2067 38.8547C70.2067 39.243 70.1861 39.6313 70.145 40.0196C70.1039 40.3875 70.0627 40.6634 70.0216 40.8474H60.8607C61.0664 41.951 61.529 42.7686 62.2487 43.3C62.9684 43.8109 63.8321 44.0664 64.8397 44.0664C65.9295 44.0664 67.0297 43.7292 68.1401 43.0547L69.6515 45.7832C68.8701 46.3146 67.9961 46.7336 67.0297 47.0401C66.0632 47.3467 65.1276 47.5 64.2228 47.5ZM60.8299 37.8736H66.3511C66.3511 37.0357 66.1454 36.351 65.7342 35.8196C65.3435 35.2677 64.6958 34.9918 63.791 34.9918C63.0918 34.9918 62.4646 35.2371 61.9094 35.7276C61.3542 36.1977 60.9944 36.913 60.8299 37.8736Z" fill="black"/>
<path d="M72.7229 47.1321V31.9261H76.7327V34.5933H76.8561C77.4113 33.5714 78.0796 32.8152 78.861 32.3247C79.6424 31.8137 80.4238 31.5582 81.2052 31.5582C81.637 31.5582 81.9969 31.5889 82.2848 31.6502C82.5727 31.6911 82.8194 31.7626 83.0251 31.8648L82.2848 35.7583C82.0175 35.6765 81.7501 35.6152 81.4828 35.5743C81.2361 35.5334 80.9482 35.513 80.6192 35.513C80.0434 35.513 79.4368 35.7276 78.7993 36.1568C78.1824 36.5656 77.6684 37.2809 77.2571 38.3028V47.1321H72.7229Z" fill="black"/>
</svg>
